Numix-GalliumOS/16/actions/mail-replied.svg

<?xml version="1.0" encoding="UTF-8" standalone="no"?>
<svg
   xmlns:dc="http://purl.org/dc/elements/1.1/"
   xmlns:cc="http://creativecommons.org/ns#"
   xmlns:rdf="http://www.w3.org/1999/02/22-rdf-syntax-ns#"
   xmlns:svg="http://www.w3.org/2000/svg"
   xmlns="http://www.w3.org/2000/svg"
   xmlns:sodipodi="http://sodipodi.sourceforge.net/DTD/sodipodi-0.dtd"
   xmlns:inkscape="http://www.inkscape.org/namespaces/inkscape"
   width="16"
   viewBox="0 0 4.5155557 4.5155557"
   height="16"
   id="svg2"
   version="1.1"
   inkscape:version="0.48.5 r10040"
   sodipodi:docname="mail-replied.svg">
  <metadata
     id="metadata22">
    <rdf:RDF>
      <cc:Work
         rdf:about="">
        <dc:format>image/svg+xml</dc:format>
        <dc:type
           rdf:resource="http://purl.org/dc/dcmitype/StillImage" />
      </cc:Work>
    </rdf:RDF>
  </metadata>
  <sodipodi:namedview
     pagecolor="#ffffff"
     bordercolor="#666666"
     borderopacity="1"
     objecttolerance="10"
     gridtolerance="10"
     guidetolerance="10"
     inkscape:pageopacity="0"
     inkscape:pageshadow="2"
     inkscape:window-width="1280"
     inkscape:window-height="998"
     id="namedview20"
     showgrid="true"
     inkscape:zoom="14.75"
     inkscape:cx="8.0763511"
     inkscape:cy="-2.0929855"
     inkscape:window-x="0"
     inkscape:window-y="0"
     inkscape:window-maximized="1"
     inkscape:current-layer="svg2">
    <inkscape:grid
       type="xygrid"
       id="grid3006" />
  </sodipodi:namedview>
  <defs
     id="defs4" />
  <path
     style="fill:#268bd2"
     d="m 0.33448553,4.5155557 3.84658447,0 c 0.3344857,0 0.3344857,0 0.3344857,-0.3225398 l 0,-2.7819047 L 2.2577779,3.2518525e-8 0,1.4111112 -2.044444e-8,4.1930159 c -2.370371e-9,0.3225398 0,0.3225398 0.33448555044444,0.3225398 z"
     id="path6" />
  <path
     style="fill-opacity:.1"
     d="m 0.33448553,4.5155557 3.84658447,0 c 0.3344857,0 0.3344857,0 0.3344857,-0.3225398 l 0,-2.7819047 L 2.2577779,3.2518525e-8 0,1.4111112 -1.75e-8,4.1930159 c -1e-8,0.3225398 0,0.3225398 0.3344855475,0.3225398 z"
     id="path8" />
  <path
     style="fill:#fff"
     d="m 0.56444446,0.56444446 0,3.38666674 3.38666674,0 0,-3.38666674 z"
     id="path10" />
  <g
     style="fill:#268bd2"
     id="g12">
    <path
       d="m 0.28222223,4.5155557 3.95111127,0 c 0.2822222,0 0.2822222,0 0.2822222,-0.2822222 l 0,-2.5400001 L 0,4.2333335 c 0,0.2822222 0,0.2822222 0.28222223,0.2822222 z"
       id="path14" />
    <path
       d="m 4.2333335,4.5155557 -3.95111127,0 C 0,4.5155557 0,4.5155557 0,4.2333335 L 0,1.6933334 4.5155557,4.2333335 c 0,0.2822222 0,0.2822222 -0.2822222,0.2822222 z"
       id="path16" />
  </g>
  <path
     style="fill:#fff;fill-opacity:.1"
     d="m 4.18107,4.5155557 -3.84658447,0 C -2.044444e-8,4.5155557 -2.044444e-8,4.5155557 -2.044444e-8,4.1986752 L 0,1.6933334 4.5155557,4.1986752 c 0,0.3168805 0,0.3168805 -0.3344857,0.3168805 z"
     id="path18" />
  <path
     inkscape:connector-curvature="0"
     style="fill:#859900;fill-rule:evenodd"
     d="m 2.7302307,1.9988882 c -0.031843,0 -0.077839,0.028305 -0.1344492,0.084915 l -1.132204,0.9057633 c -0.2272769,0.2272769 -0.2264408,0.2264408 0,0.4528816 l 1.132204,0.9057633 c 0.1698306,0.1698307 0.2158264,0.084915 0.2264408,-0.2547459 0.00354,-0.1132204 0,-0.2547459 0,-0.4245765 0.00239,9.9e-6 0.00469,0 0.00708,0 1.1251278,0 1.5780095,-0.6793225 1.5709332,-1.5921622 -0.4458054,0.459958 -0.898687,0.6863988 -1.5780095,0.6722463 2.166e-4,-0.1623455 0.00342,-0.3009776 0,-0.410424 C 2.815146,2.1121086 2.793917,1.9988882 2.730231,1.9988882 z"
     id="path4" />
</svg>

<svg xmlns="http://www.w3.org/2000/svg" width="16" viewBox="0 0 4.5155557 4.5155557" height="16">
 <path d="m 0.334 4.516 3.847 0 c 0.334 0 0.334 0 0.334 -0.323 l 0 -2.782 l -2.258 -1.411 -2.258 1.411 0 2.782 c 0 0.323 0 0.323 0.334 0.323 z" style="fill:#268bd2"/>
 <path d="m 0.334 4.516 3.847 0 c 0.334 0 0.334 0 0.334 -0.323 l 0 -2.782 l -2.258 -1.411 -2.258 1.411 0 2.782 c 0 0.323 0 0.323 0.334 0.323 z" style="fill-opacity:0.1"/>
 <path d="m 0.564 0.564 0 3.387 3.387 0 0 -3.387 z" style="fill:#fff"/>
 <g style="fill:#268bd2">
  <path d="m 0.282 4.516 3.951 0 c 0.282 0 0.282 0 0.282 -0.282 l 0 -2.54 l -4.516 2.54 c 0 0.282 0 0.282 0.282 0.282 z"/>
  <path d="m 4.233 4.516 -3.951 0 c -0.282 0 -0.282 0 -0.282 -0.282 l 0 -2.54 4.516 2.54 c 0 0.282 0 0.282 -0.282 0.282 z"/>
 </g>
 <path d="m 4.181 4.516 -3.847 0 c -0.334 0 -0.334 0 -0.334 -0.317 l 0 -2.505 4.516 2.505 c 0 0.317 0 0.317 -0.334 0.317 z" style="fill:#fff;fill-opacity:0.1"/>
 <path d="m 2.73 1.999 c -0.032 0 -0.078 0.028 -0.134 0.085 l -1.132 0.906 c -0.227 0.227 -0.226 0.226 0 0.453 l 1.132 0.906 c 0.17 0.17 0.216 0.085 0.226 -0.255 0.004 -0.113 0 -0.255 0 -0.425 0.002 0 0.005 0 0.007 0 1.125 0 1.578 -0.679 1.571 -1.592 -0.446 0.46 -0.899 0.686 -1.578 0.672 0 -0.162 0.003 -0.301 0 -0.41 c -0.007 -0.226 -0.028 -0.34 -0.092 -0.34 z" style="fill:#859900;fill-rule:evenodd"/>
</svg>
